img/sp-5.svg

<svg width="127" height="117" viewBox="0 0 127 117" fill="none" xmlns="http://www.w3.org/2000/svg">
<g opacity="0.9">
<path d="M67.5766 80.379H0.883355C0.294452 80.379 0 79.9339 0 79.3404V1.7398C0 1.1463 0.441677 0.701172 0.883355 0.701172H103.353C103.941 0.701172 104.236 1.1463 104.236 1.7398V60.3483C104.236 60.9418 103.794 61.3869 103.353 61.3869C102.911 61.3869 102.469 60.9418 102.469 60.3483V2.77845H1.76671V78.4502H67.5766C68.1655 78.4502 68.46 78.8953 68.46 79.4888C68.46 79.9339 68.0183 80.379 67.5766 80.379Z" fill="#AEB2BE"/>
<path d="M103.205 20.287H0.883355C0.294452 20.287 0 19.8418 0 19.2483C0 18.6548 0.441677 18.2097 0.883355 18.2097H103.353C103.941 18.2097 104.236 18.6548 104.236 19.2483C104.236 19.8418 103.794 20.287 103.205 20.287Z" fill="#AEB2BE"/>
<path d="M11.1892 14.2034C8.9808 14.2034 7.36133 12.4229 7.36133 10.3456C7.36133 8.26836 9.12802 6.48786 11.1892 6.48786C13.3975 6.48786 15.017 8.26836 15.017 10.3456C15.017 12.4229 13.2503 14.2034 11.1892 14.2034ZM11.1892 8.41674C10.1586 8.41674 9.27525 9.307 9.27525 10.3456C9.27525 11.3843 10.1586 12.2745 11.1892 12.2745C12.2197 12.2745 13.1031 11.3843 13.1031 10.3456C13.1031 9.307 12.2197 8.41674 11.1892 8.41674Z" fill="#FE1845"/>
<path d="M23.8513 14.2034C21.6429 14.2034 20.0234 12.4229 20.0234 10.3456C20.0234 8.26836 21.7902 6.48786 23.8513 6.48786C25.9125 6.48786 27.6792 8.26836 27.6792 10.3456C27.6792 12.4229 25.9125 14.2034 23.8513 14.2034ZM23.8513 8.41674C22.8207 8.41674 21.9374 9.307 21.9374 10.3456C21.9374 11.3843 22.8207 12.2745 23.8513 12.2745C24.8819 12.2745 25.7653 11.3843 25.7653 10.3456C25.7653 9.307 24.8819 8.41674 23.8513 8.41674Z" fill="#FE1845"/>
<path d="M103.207 11.236H46.3775C45.7886 11.236 45.4941 10.7908 45.4941 10.1974C45.4941 9.60386 45.9358 9.15871 46.3775 9.15871H103.207C103.795 9.15871 104.09 9.60386 104.09 10.1974C104.09 10.7908 103.795 11.236 103.207 11.236Z" fill="#AEB2BE"/>
<path d="M75.3337 92.4044C75.9785 92.0387 76.2066 91.2142 75.8438 90.5644C75.4805 89.9151 74.6629 89.6847 74.0181 90.0503C73.3733 90.4165 73.1446 91.241 73.508 91.8903C73.8708 92.5401 74.6889 92.7705 75.3337 92.4044V92.4044Z" fill="#FF0032"/>
<path d="M71.1747 93.2164C70.8114 92.5665 69.9938 92.3361 69.349 92.7023L67.0133 94.0282C66.3695 94.3939 65.5504 94.1629 65.1876 93.5142C64.8242 92.8643 64.0067 92.6339 63.3619 93.0001C62.7171 93.3663 62.4885 94.1903 62.8518 94.8401C63.9346 96.7779 66.3882 97.4834 68.3289 96.3823L70.6646 95.0563C71.3094 94.6902 71.538 93.8667 71.1747 93.2164V93.2164Z" fill="#FF0032"/>
<path d="M69.7456 101.669L76.3711 113.524C77.8008 116.086 81.0673 117.063 83.6744 115.581C86.2541 114.115 87.1701 110.823 85.7142 108.221L81.7673 101.158L85.2709 99.1693C85.9157 98.8026 86.1444 97.9792 85.781 97.3294L84.0702 94.2682C84.2785 94.2298 85.6478 93.9743 109.796 89.4685C112.777 89.3374 114.597 86.0729 113.12 83.4316L108.747 75.6082L111.64 71.2935C111.924 70.8691 111.947 70.32 111.697 69.874L109.066 65.166C108.817 64.72 108.337 64.4552 107.832 64.4799L102.672 64.7364L97.8179 56.0508C97.1148 54.7926 95.8396 54.0217 94.4073 53.9883C94.39 53.9876 94.3732 53.9875 94.356 53.9873C92.9716 53.9724 91.7077 54.6533 90.9508 55.8194L73.2042 78.111L61.7514 84.6122C57.2468 87.1682 55.6349 92.94 58.1809 97.492C60.5069 101.654 65.4856 103.335 69.7456 101.669V101.669ZM83.3789 109.548C84.1056 110.846 83.65 112.493 82.3577 113.227C81.0613 113.964 79.4253 113.485 78.7069 112.199L72.1287 100.427L76.8002 97.7756C84.4134 111.4 83.2566 109.33 83.3789 109.548V109.548ZM80.4517 98.8037L79.136 96.4496L81.4718 95.1237L82.7874 97.4777L80.4517 98.8037ZM107.137 67.2192L108.955 70.4726L107.277 72.976L104.143 67.3681L107.137 67.2192ZM93.1771 57.3246C93.5431 56.7354 94.1144 56.6803 94.3458 56.6891C94.5745 56.6942 95.1439 56.7721 95.4816 57.3762L110.784 84.7575C111.283 85.6489 110.654 86.7562 109.635 86.7706C109.452 86.7729 109.367 86.8052 108.898 86.8883L92.7116 57.9249C93.0624 57.4801 93.1073 57.4373 93.1771 57.3246V57.3246ZM90.9036 60.1958L106.112 87.4083L82.6795 91.7798L75.7005 79.2925L90.9036 60.1958ZM60.5167 96.166C59.939 95.1334 59.6403 93.965 59.6528 92.7862C59.6782 90.3769 60.9867 88.1471 63.067 86.9662L73.578 80.9996L80.1562 92.7697L69.6452 98.7368C66.4249 100.564 62.3303 99.4109 60.5167 96.166V96.166Z" fill="#9EA3B2"/>
<path d="M123.986 57.1947L116.473 61.3032C115.822 61.6593 115.581 62.4794 115.934 63.1349C116.286 63.7899 117.1 64.0345 117.752 63.6779L125.264 59.5694C125.915 59.2133 126.156 58.3932 125.803 57.7377C125.45 57.0816 124.636 56.8386 123.986 57.1947V57.1947Z" fill="#FF0032"/>
<path d="M123.056 71.1767L117.892 69.7228C117.179 69.522 116.44 69.9415 116.241 70.6603C116.041 71.379 116.458 72.1239 117.171 72.3247L122.336 73.7785C123.053 73.9809 123.789 73.5545 123.987 72.841C124.186 72.1223 123.77 71.3769 123.056 71.1767Z" fill="#FF0032"/>
<path d="M110.243 52.1387L108.799 57.3435C108.599 58.0622 109.016 58.8071 109.729 59.0084C110.442 59.2087 111.181 58.7902 111.381 58.0709L112.824 52.8662C113.024 52.1475 112.607 51.4021 111.894 51.2013C111.182 51.0005 110.442 51.42 110.243 52.1387V52.1387Z" fill="#FF0032"/>
</g>
<path d="M76.9593 66.2261H24.1763C22.0219 66.2261 20.2266 64.743 20.2266 62.9633V29.4458C20.2266 27.6661 22.0219 26.183 24.1763 26.183H76.9593C79.1137 26.183 80.909 27.6661 80.909 29.4458V62.9633C80.909 64.743 79.1137 66.2261 76.9593 66.2261ZM24.1763 28.111C23.2786 28.111 22.5605 28.7043 22.5605 29.4458V62.9633C22.5605 63.7048 23.2786 64.2981 24.1763 64.2981H76.9593C77.857 64.2981 78.5751 63.7048 78.5751 62.9633V29.4458C78.5751 28.7043 77.857 28.111 76.9593 28.111H24.1763Z" fill="#AEB2BE"/>
<g clip-path="url(#clip0)">
<path d="M57.4142 35.2608C55.7167 35.2608 54.0365 35.7092 52.5543 36.5579C52.3591 36.6699 52.287 36.9265 52.3937 37.1315C52.5004 37.3361 52.7439 37.4122 52.94 37.3002C54.3042 36.5191 55.8512 36.1061 57.4142 36.1061C62.5748 36.1061 66.7734 40.5146 66.7734 45.9332C66.7734 51.3518 62.5748 55.7603 57.4142 55.7603C52.2536 55.7603 48.0551 51.3518 48.0551 45.9332C48.0551 43.2869 49.0433 40.8041 50.8379 38.9427C50.9961 38.7787 50.9977 38.5111 50.8415 38.345C50.6849 38.1789 50.4301 38.1776 50.2723 38.3416C48.3236 40.3628 47.25 43.059 47.25 45.9332C47.25 51.8181 51.8096 56.6056 57.4142 56.6056C63.0188 56.6056 67.5785 51.8181 67.5785 45.9332C67.5785 40.0484 63.0188 35.2608 57.4142 35.2608Z" fill="#FE1845"/>
<path d="M53.8702 52.0291C53.9487 52.1462 54.0731 52.2087 54.1999 52.2087C54.28 52.2087 54.3605 52.1838 54.431 52.1318L62.3539 46.2795C62.4613 46.2 62.5249 46.0715 62.5249 45.9338C62.5249 45.796 62.4613 45.6675 62.3539 45.588L54.431 39.7357C54.3082 39.6448 54.1472 39.6334 54.014 39.7061C53.8807 39.7788 53.797 39.9234 53.797 40.0815V48.0822C53.797 48.3155 53.9773 48.5049 54.1995 48.5049C54.4217 48.5049 54.6021 48.3155 54.6021 48.0822V40.8955L61.4228 45.9338L53.9677 51.4403C53.7861 51.5747 53.7422 51.8385 53.8702 52.0291Z" fill="#FE1845"/>
</g>
<defs>
<clipPath id="clip0">
<rect width="20.2097" height="21.2202" fill="white" transform="translate(47.3105 35.3237)"/>
</clipPath>
</defs>
</svg>

<svg width="127" height="117" fill="none" xmlns="http://www.w3.org/2000/svg"><g opacity=".9"><path d="M67.577 80.379H.883c-.589 0-.883-.445-.883-1.039V1.74C0 1.146.442.7.883.7h102.47c.588 0 .883.445.883 1.039v58.608c0 .594-.442 1.039-.883 1.039-.442 0-.884-.445-.884-1.039V2.778H1.767V78.45h65.81c.588 0 .883.445.883 1.039 0 .445-.442.89-.883.89z" fill="#AEB2BE"/><path d="M103.205 20.287H.883c-.589 0-.883-.445-.883-1.039 0-.593.442-1.038.883-1.038h102.47c.588 0 .883.445.883 1.038a1.01 1.01 0 0 1-1.031 1.039z" fill="#AEB2BE"/><path d="M11.19 14.203c-2.21 0-3.829-1.78-3.829-3.857 0-2.078 1.767-3.858 3.828-3.858 2.209 0 3.828 1.78 3.828 3.858 0 2.077-1.767 3.857-3.828 3.857zm0-5.786c-1.031 0-1.915.89-1.915 1.929 0 1.038.884 1.928 1.914 1.928 1.03 0 1.914-.89 1.914-1.928 0-1.039-.883-1.93-1.914-1.93zM23.851 14.203c-2.208 0-3.828-1.78-3.828-3.857 0-2.078 1.767-3.858 3.828-3.858 2.062 0 3.828 1.78 3.828 3.858 0 2.077-1.766 3.857-3.828 3.857zm0-5.786c-1.03 0-1.914.89-1.914 1.929 0 1.038.884 1.928 1.914 1.928 1.03 0 1.914-.89 1.914-1.928 0-1.039-.883-1.93-1.914-1.93z" fill="#FE1845"/><path d="M103.207 11.236h-56.83c-.588 0-.883-.445-.883-1.039 0-.593.442-1.038.883-1.038h56.83c.588 0 .883.445.883 1.038 0 .594-.295 1.039-.883 1.039z" fill="#AEB2BE"/><path d="M75.334 92.404c.644-.365.873-1.19.51-1.84a1.336 1.336 0 0 0-1.826-.514 1.357 1.357 0 0 0-.51 1.84c.363.65 1.18.88 1.826.514zM71.175 93.216a1.335 1.335 0 0 0-1.826-.514l-2.336 1.326a1.337 1.337 0 0 1-1.825-.514A1.335 1.335 0 0 0 63.362 93a1.357 1.357 0 0 0-.51 1.84c1.083 1.938 3.536 2.643 5.477 1.542l2.336-1.326c.644-.366.873-1.19.51-1.84z" fill="#FF0032"/><path d="M69.746 101.669l6.625 11.855c1.43 2.562 4.696 3.539 7.303 2.057 2.58-1.466 3.496-4.758 2.04-7.36l-3.947-7.063 3.504-1.989c.645-.366.873-1.19.51-1.84l-1.71-3.06c.207-.04 1.577-.295 25.725-4.8 2.981-.132 4.801-3.396 3.324-6.037l-4.373-7.824 2.893-4.315c.284-.424.307-.973.057-1.419l-2.631-4.708a1.34 1.34 0 0 0-1.234-.686l-5.16.256-4.854-8.685a3.982 3.982 0 0 0-3.41-2.063h-.052a3.978 3.978 0 0 0-3.405 1.831L73.204 78.111l-11.453 6.501c-4.504 2.556-6.116 8.328-3.57 12.88 2.326 4.162 7.305 5.843 11.565 4.177zm13.633 7.879a2.711 2.711 0 0 1-1.021 3.679 2.674 2.674 0 0 1-3.651-1.028l-6.578-11.772 4.671-2.651 6.579 11.772zm-2.927-10.744l-1.316-2.354 2.336-1.326 1.315 2.354-2.335 1.326zm26.685-31.585l1.818 3.254-1.678 2.503-3.134-5.608 2.994-.149zm-13.96-9.894c.366-.59.937-.645 1.169-.636.228.005.798.083 1.136.687l15.302 27.381c.499.892-.13 2-1.149 2.014-.183.002-.268.034-.737.117L92.712 57.925c.35-.445.395-.488.465-.6zm-2.273 2.87l15.208 27.213L82.68 91.78 75.7 79.293l15.204-19.097zM60.517 96.167a6.786 6.786 0 0 1-.864-3.38 6.788 6.788 0 0 1 3.414-5.82L73.578 81l6.578 11.77-10.51 5.967c-3.221 1.827-7.316.674-9.13-2.571z" fill="#9EA3B2"/><path d="M123.986 57.195l-7.513 4.108a1.356 1.356 0 0 0-.539 1.832c.352.655 1.166.9 1.818.543l7.512-4.109a1.356 1.356 0 0 0 .539-1.831 1.334 1.334 0 0 0-1.817-.543zM123.056 71.177l-5.164-1.454a1.338 1.338 0 0 0-1.651.937c-.2.719.217 1.464.93 1.665l5.165 1.453a1.339 1.339 0 0 0 1.651-.937 1.351 1.351 0 0 0-.931-1.664zM110.243 52.139l-1.444 5.204c-.2.72.217 1.464.93 1.665a1.34 1.34 0 0 0 1.652-.937l1.443-5.205a1.352 1.352 0 0 0-.93-1.665 1.339 1.339 0 0 0-1.651.938z" fill="#FF0032"/></g><path d="M76.96 66.226H24.175c-2.154 0-3.95-1.483-3.95-3.263V29.446c0-1.78 1.796-3.263 3.95-3.263H76.96c2.155 0 3.95 1.483 3.95 3.263v33.517c0 1.78-1.795 3.263-3.95 3.263zM24.175 28.111c-.897 0-1.615.593-1.615 1.335v33.517c0 .742.718 1.335 1.615 1.335H76.96c.898 0 1.616-.593 1.616-1.335V29.446c0-.742-.718-1.335-1.616-1.335H24.176z" fill="#AEB2BE"/><g clip-path="url(#clip0)" fill="#FE1845"><path d="M57.414 35.26a9.797 9.797 0 0 0-4.86 1.298.434.434 0 0 0-.16.574c.106.204.35.28.546.168a9.02 9.02 0 0 1 4.474-1.194c5.16 0 9.36 4.409 9.36 9.827 0 5.419-4.2 9.827-9.36 9.827-5.16 0-9.359-4.408-9.359-9.827 0-2.646.988-5.129 2.783-6.99a.438.438 0 0 0 .004-.598.39.39 0 0 0-.57-.003c-1.948 2.02-3.022 4.717-3.022 7.591 0 5.885 4.56 10.673 10.164 10.673 5.605 0 10.165-4.788 10.165-10.673s-4.56-10.672-10.165-10.672z"/><path d="M53.87 52.03c.079.116.203.179.33.179.08 0 .16-.025.231-.077l7.923-5.852a.429.429 0 0 0 .17-.346.43.43 0 0 0-.17-.346l-7.923-5.852a.386.386 0 0 0-.417-.03.426.426 0 0 0-.217.375v8.001c0 .233.18.423.403.423.222 0 .402-.19.402-.423v-7.187l6.82 5.039-7.454 5.506a.436.436 0 0 0-.098.59z"/></g><defs><clipPath id="clip0"><path fill="#fff" transform="translate(47.31 35.324)" d="M0 0h20.21v21.22H0z"/></clipPath></defs></svg>
